public/star.svg

<svg width="67" height="80" viewBox="0 0 67 80" fill="none" xmlns="http://www.w3.org/2000/svg">
<path fill-rule="evenodd" clip-rule="evenodd" d="M11.4137 74.6975L19.5214 79.3974C19.3634 79.2575 19.2486 79.0751 19.1907 78.8717C19.1328 78.6682 19.1343 78.4525 19.1948 78.2499L23.0442 56.193C23.185 55.751 23.1907 55.2767 23.0607 54.8314C22.9307 54.3861 22.6708 53.9901 22.3147 53.6945L14.2069 48.9996L14.0778 48.9258C15.0615 49.513 15.0873 50.4442 14.9335 51.4931L11.097 73.5449C11.0331 73.7472 11.0291 73.9638 11.0853 74.1684C11.1415 74.3729 11.2555 74.5567 11.4137 74.6975Z" fill="white"/>
<path fill-rule="evenodd" clip-rule="evenodd" d="M11.6792 74.2698L18.6782 78.3216C18.6782 78.2658 18.6961 78.214 18.6961 78.1751L22.5454 56.1063C22.7003 55.0574 22.5454 54.4622 22.0302 54.1212L15.4869 50.3326C15.5177 50.7477 15.4991 51.1651 15.4313 51.5759L11.5928 73.6317C11.5244 74.0634 11.5928 74.197 11.6792 74.2658V74.2698ZM19.5209 79.9058C19.43 79.9037 19.3412 79.8783 19.2628 79.8321L11.168 75.1372C11.1551 75.1282 11.1372 75.1192 11.1253 75.1113C10.8909 74.9179 10.7165 74.6612 10.6227 74.3714C10.5289 74.0817 10.5197 73.771 10.5962 73.4762L14.4327 51.4064C14.6005 50.2718 14.4456 49.7364 13.8183 49.3605C13.7048 49.2938 13.6218 49.185 13.5871 49.0575C13.5524 48.9301 13.5687 48.794 13.6327 48.6785C13.6997 48.5641 13.8077 48.4796 13.9347 48.4426C14.0617 48.4055 14.1979 48.4186 14.3156 48.4791L14.4446 48.5529L22.5692 53.2608C23.0089 53.6106 23.3357 54.0832 23.5084 54.6192C23.6812 55.1552 23.6922 55.7305 23.54 56.2728L19.6906 78.3376C19.635 78.7902 19.7035 78.9158 19.8018 78.9806C19.911 79.0537 19.9875 79.1668 20.0147 79.2957C20.042 79.4247 20.018 79.5592 19.9477 79.6706C19.9005 79.7413 19.8371 79.7995 19.7628 79.8405C19.6886 79.8814 19.6056 79.9038 19.5209 79.9058Z" fill="#1B69FF"/>
<path fill-rule="evenodd" clip-rule="evenodd" d="M38.1934 16.2291L46.3051 20.928C46.5635 21.0355 46.8429 21.0824 47.122 21.0651C47.4012 21.0479 47.6728 20.9669 47.9161 20.8284L65.3465 12.6249C65.4694 12.553 65.6086 12.514 65.7508 12.5118C65.893 12.5095 66.0334 12.544 66.1585 12.612L58.0478 7.91106C57.9248 7.84595 57.7874 7.81347 57.6484 7.81661C57.5095 7.81975 57.3736 7.85841 57.2537 7.92901L39.8053 16.1324C39.5618 16.2709 39.2899 16.3517 39.0105 16.3684C38.7311 16.3852 38.4516 16.3375 38.1934 16.2291Z" fill="#1B69FF"/>
<path fill-rule="evenodd" clip-rule="evenodd" d="M39.9031 16.6387L46.5458 20.4921C46.7376 20.5606 46.9423 20.5849 47.1447 20.5631C47.3471 20.5414 47.542 20.4742 47.7151 20.3665L64.7197 12.3705L57.8071 8.35257C57.7376 8.31867 57.6909 8.29172 57.4507 8.39541L40.0203 16.5909C39.9823 16.6084 39.9436 16.624 39.9041 16.6377L39.9031 16.6387ZM46.9587 21.5889C46.6587 21.5845 46.3631 21.5166 46.0912 21.3894L37.9367 16.6646C37.8254 16.5991 37.7439 16.4926 37.7094 16.3677C37.675 16.2428 37.6903 16.1093 37.7521 15.9956C37.8111 15.8796 37.9121 15.7907 38.0343 15.7473C38.1566 15.7039 38.2908 15.7092 38.4092 15.7623C38.6025 15.843 38.8122 15.8761 39.0209 15.8587C39.2295 15.8414 39.4309 15.7742 39.6083 15.6626L57.0388 7.46722C57.2332 7.36059 57.4511 7.30469 57.6726 7.30469C57.894 7.30469 58.112 7.36059 58.3063 7.46722L66.418 12.1711C66.5298 12.2417 66.6109 12.3521 66.6452 12.4802C66.6794 12.6083 66.6643 12.7446 66.6027 12.862C66.5339 12.9795 66.4219 13.0651 66.2908 13.1005C66.1598 13.136 66.0202 13.1183 65.9019 13.0514C65.8463 13.0125 65.8026 12.9866 65.5495 13.0903L48.129 21.2867C47.7636 21.4671 47.3646 21.5687 46.9577 21.5848L46.9587 21.5889Z" fill="#1B69FF"/>
<path fill-rule="evenodd" clip-rule="evenodd" d="M19.0951 28.1308L1.64682 40.1408C1.27631 40.4016 0.981103 40.7562 0.791181 41.1687C0.533099 41.7041 0.263075 42.6233 0.833833 43.063L8.94554 47.7579C8.34401 47.3053 8.65668 46.3043 8.94554 45.7639C9.14058 45.3988 9.41879 45.0851 9.75749 44.8486L27.2008 32.8387C28.2763 32.0517 29.0631 30.9302 29.4392 29.6482L36.3945 6.95729C36.6357 6.27932 37.551 4.82569 38.4612 5.31323L30.3554 0.600381C29.4621 0.12082 28.53 1.54952 28.3017 2.24045L21.3464 24.9354C20.9614 26.2179 20.1712 27.3395 19.0951 28.1308Z" fill="#1B69FF"/>
<path fill-rule="evenodd" clip-rule="evenodd" d="M29.9824 1.0138C29.9291 1.01561 29.8766 1.02745 29.8276 1.0487C29.3337 1.36398 28.9659 1.84355 28.7883 2.40362L21.8152 25.0906C21.4072 26.4787 20.5557 27.6934 19.3922 28.5472C19.3793 28.5472 19.3793 28.5472 19.3793 28.5472L1.93094 40.5572C1.63353 40.7756 1.39482 41.0647 1.23615 41.3987C1.02076 41.8603 0.892671 42.4605 1.13686 42.6499L8.11896 46.6888C8.17762 46.2776 8.30872 45.8803 8.50609 45.5153C8.73459 45.0825 9.06139 44.7098 9.46 44.4275L26.9212 32.4086C27.9084 31.6875 28.6258 30.6542 28.9581 29.4744L35.9313 6.79246C36.1666 6.13501 36.5625 5.54744 37.0827 5.08359L30.1135 1.03574C30.0727 1.01831 30.0288 1.00949 29.9844 1.00982L29.9824 1.0138ZM8.94679 48.2641C8.85604 48.2659 8.76665 48.242 8.68876 48.1952L0.577052 43.4953C-0.105872 42.9769 -0.178338 42.0407 0.336833 40.953C0.566214 40.4688 0.913376 40.0505 1.3463 39.7367L18.7946 27.7217C19.7875 26.9985 20.5139 25.9652 20.8603 24.7835L27.8165 2.10154C28.0916 1.25144 28.6786 0.538447 29.4583 0.107525C29.6395 0.0299345 29.8356 -0.00646974 30.0324 0.000941873C30.2293 0.00835349 30.422 0.0593969 30.5969 0.150396L38.7215 4.86325C38.8354 4.9311 38.9183 5.041 38.9526 5.16946C38.9869 5.29792 38.9699 5.43477 38.9051 5.55076C38.8403 5.66675 38.7329 5.75266 38.6059 5.79018C38.4788 5.82771 38.3422 5.81386 38.2252 5.75157C38.1845 5.72729 38.1386 5.71343 38.0913 5.71117C38.0441 5.70891 37.997 5.71832 37.9542 5.73861C37.4497 6.05941 37.0715 6.54605 36.8842 7.11552L29.9279 29.7894C29.5173 31.179 28.6604 32.393 27.491 33.2421L10.0437 45.261C9.76716 45.4523 9.54155 45.7087 9.38657 46.0078C9.13345 46.5063 8.98952 47.1554 9.24462 47.3538C9.34636 47.4324 9.41479 47.5468 9.43631 47.6739C9.45784 47.801 9.43089 47.9317 9.36076 48.0397C9.31544 48.1083 9.25413 48.1646 9.18216 48.2039C9.11019 48.2431 9.02972 48.2641 8.94782 48.265L8.94679 48.2641Z" fill="#1B69FF"/>
<path fill-rule="evenodd" clip-rule="evenodd" d="M27.1902 32.8301L9.75976 44.8401C8.64604 45.6038 8.20427 47.4861 9.04601 47.8052L22.1854 53.6267C22.9457 53.9637 23.2554 54.9088 23.044 56.19L19.1966 78.2468C18.9693 79.6366 20.1078 79.9418 21.0826 78.7384L36.1635 59.6466C36.4593 59.1733 36.8654 58.7795 37.3467 58.4992C37.828 58.2188 38.3701 58.0604 38.926 58.0375L54.0069 59.6556C54.9608 59.7553 56.1162 58.1102 55.876 56.9976L52.0524 39.3764C51.8877 38.1252 52.1973 36.8576 52.9199 35.8251L66.0633 14.7702C66.901 13.4362 66.4504 12.1122 65.3505 12.6297L47.9201 20.8331C47.7382 20.9594 47.5313 21.0449 47.3136 21.0838C47.0958 21.1226 46.8723 21.1139 46.6582 21.0581C46.4441 21.0024 46.2444 20.9011 46.0729 20.7609C45.9013 20.6207 45.7618 20.445 45.6639 20.2458L38.7254 5.60773C38.2827 4.68351 36.8395 5.51701 36.4136 6.94473L29.4444 29.6396C29.0589 30.9213 28.2674 32.0415 27.1902 32.8301Z" fill="white"/>
<path fill-rule="evenodd" clip-rule="evenodd" d="M27.4604 33.2608L10.0428 45.2669C9.75381 45.4778 9.51911 45.7551 9.35836 46.0755C9.19761 46.396 9.11545 46.7505 9.11869 47.1093C9.11869 47.1661 9.14453 47.3087 9.21799 47.3387L22.3861 53.1641C23.3708 53.6048 23.7956 54.7693 23.5425 56.2798L19.6931 78.3317C19.6197 78.7375 19.7229 78.9359 19.7923 78.9707C19.9085 79.0176 20.2648 78.9488 20.6768 78.4223L35.7577 59.3306C36.1053 58.7874 36.5815 58.3391 37.1438 58.0259C37.7061 57.7127 38.3369 57.5444 38.9797 57.536L54.0557 59.1542C54.2031 59.1361 54.3453 59.0876 54.4732 59.0118C54.6012 58.9359 54.7121 58.8344 54.7992 58.7135C55.0041 58.5019 55.1621 58.2491 55.2628 57.9717C55.3636 57.6944 55.4048 57.3988 55.3838 57.1043L51.5642 39.4842C51.3589 38.1034 51.6894 36.6961 52.4874 35.553L65.6306 14.5021C66.0863 13.7813 66.0277 13.206 65.9016 13.0604C65.8332 12.9787 65.6485 13.0515 65.5751 13.0914L48.1287 21.2858C47.8874 21.4395 47.6167 21.5406 47.334 21.5827C47.0514 21.6247 46.763 21.6067 46.4877 21.5299C46.2124 21.453 45.9562 21.319 45.7357 21.1364C45.5152 20.9539 45.3352 20.727 45.2074 20.4702L38.2681 5.82319C38.2075 5.72349 38.1817 5.71547 38.1092 5.72345C37.8075 5.82815 37.5376 6.00891 37.3254 6.24843C37.1131 6.48794 36.9657 6.7782 36.8972 7.09136L29.928 29.7873C29.5094 31.1852 28.6426 32.405 27.4624 33.2569L27.4604 33.2608ZM19.8767 80.0017C19.7063 80.0029 19.5373 79.9689 19.3804 79.9019C19.085 79.7361 18.8556 79.4729 18.7311 79.1568C18.6067 78.8407 18.5948 78.4911 18.6975 78.1671L22.5469 56.1113C22.7146 55.0844 22.5161 54.3327 21.9752 54.0954L8.83182 48.2778C8.62773 48.1881 8.45277 48.0428 8.32678 47.8583C8.2008 47.6738 8.12889 47.4575 8.11916 47.2339C8.09246 46.6899 8.20233 46.1478 8.43874 45.6575C8.67516 45.1673 9.0305 44.7446 9.47208 44.4284L26.9065 32.4184C26.9199 32.4099 26.9347 32.4038 26.9501 32.4004C27.9091 31.6694 28.6117 30.6509 28.9562 29.4922L35.9294 6.80121C36.051 6.29002 36.3133 5.82348 36.6862 5.45485C37.0592 5.08621 37.5279 4.8304 38.0387 4.71652C38.2757 4.69268 38.5141 4.74557 38.7189 4.86756C38.9238 4.98954 39.0844 5.17422 39.1772 5.39448L46.1256 20.0276C46.2249 20.235 46.5634 20.9039 47.7069 20.3775L65.1373 12.1741C65.3784 12.0325 65.6599 11.9763 65.9365 12.0146C66.2132 12.053 66.4691 12.1836 66.663 12.3855C66.9106 12.7923 67.027 13.266 66.9963 13.7418C66.9656 14.2176 66.7891 14.6723 66.4913 15.0435L53.347 36.0914C52.6954 37.0145 52.4105 38.1487 52.5479 39.2719L56.3675 56.888C56.4228 57.3395 56.3787 57.7977 56.2384 58.2303C56.0981 58.6629 55.8649 59.0593 55.5555 59.3915C55.3669 59.639 55.1226 59.838 54.8426 59.9721C54.5625 60.1063 54.2547 60.1718 53.9445 60.1632L38.8765 58.545C38.4055 58.5809 37.9496 58.7277 37.5456 58.9737C37.1417 59.2197 36.8012 59.5578 36.5518 59.9608L21.459 79.0565C21.2821 79.3223 21.0484 79.5451 20.7748 79.7086C20.5012 79.8722 20.1937 79.9723 19.8767 80.0017Z" fill="#1B69FF"/>
<path fill-rule="evenodd" clip-rule="evenodd" d="M27.9181 32.2227C28.6219 31.4934 29.1446 30.6077 29.4437 29.6374L36.412 6.9425C36.6274 6.26055 37.5683 4.81888 38.4657 5.30243L30.3569 0.599529C29.4973 0.137914 28.5871 1.46295 28.3469 2.114L21.3479 24.9345C21.0446 25.9026 20.5224 26.7871 19.8223 27.5188L27.9181 32.2227Z" fill="white"/>
<path fill-rule="evenodd" clip-rule="evenodd" d="M20.6042 27.396L27.8185 31.5775C28.3407 30.968 28.7287 30.2545 28.9571 29.4838L35.9302 6.80185C36.1561 6.14074 36.5537 5.55216 37.0817 5.09694L30.1125 1.0451C30.0298 1.01119 29.9371 1.01119 29.8544 1.0451C29.3767 1.33572 29.0105 1.77972 28.8152 2.30529L21.8182 25.0919C21.5624 25.9298 21.1511 26.7116 20.6062 27.396H20.6042ZM27.9168 32.73C27.8323 32.7312 27.7491 32.7087 27.6766 32.6652L19.5649 27.9613C19.5003 27.9219 19.4453 27.8686 19.4037 27.8052C19.3621 27.7419 19.3351 27.6701 19.3244 27.5949C19.3138 27.5198 19.3199 27.4432 19.3422 27.3708C19.3646 27.2983 19.4027 27.2317 19.4537 27.1757C20.1008 26.498 20.5829 25.679 20.8622 24.7829L27.8612 1.97529C28.1492 1.16213 28.7344 0.489502 29.4981 0.0939416C29.6753 0.0249416 29.8653 -0.0049891 30.055 0.00619214C30.2448 0.0173734 30.4299 0.0694077 30.5979 0.15875L38.7225 4.86761C38.8305 4.93839 38.9076 5.04772 38.9383 5.17346C38.969 5.2992 38.951 5.43197 38.8879 5.54487C38.8248 5.65778 38.7214 5.7424 38.5985 5.78159C38.4757 5.82078 38.3426 5.8116 38.2262 5.75594C38.1827 5.73071 38.1335 5.71678 38.0832 5.71538C38.033 5.71399 37.9832 5.72519 37.9383 5.74797C37.4447 6.0684 37.0738 6.54745 36.8861 7.1069L29.9299 29.7938C29.6098 30.839 29.0475 31.793 28.289 32.5775C28.241 32.6276 28.1831 32.667 28.119 32.6933C28.0549 32.7196 27.986 32.7321 27.9168 32.73Z" fill="#1B69FF"/>
</svg>

<svg xmlns="http://www.w3.org/2000/svg" width="67" height="80" fill="none" viewBox="0 0 67 80"><path fill="#fff" fill-rule="evenodd" d="m11.414 74.698 8.107 4.7a1.11 1.11 0 0 1-.326-1.148l3.85-22.057a2.33 2.33 0 0 0-.73-2.498L14.207 49l-.13-.074c.985.587 1.01 1.518.857 2.567l-3.837 22.052a1.1 1.1 0 0 0 .317 1.153" clip-rule="evenodd"/><path fill="#1b69ff" fill-rule="evenodd" d="m11.68 74.27 6.998 4.052c0-.056.018-.108.018-.147l3.85-22.069c.154-1.049 0-1.644-.516-1.985l-6.543-3.788q.046.624-.056 1.243l-3.838 22.056c-.069.431 0 .565.086.634zm7.84 5.636a.53.53 0 0 1-.257-.074l-8.095-4.695-.043-.026a1.6 1.6 0 0 1-.529-1.635l3.837-22.07c.168-1.134.013-1.67-.615-2.045a.505.505 0 0 1-.185-.682.52.52 0 0 1 .683-.2l.129.074 8.124 4.708a2.866 2.866 0 0 1 .97 3.012l-3.848 22.065c-.056.452.012.578.11.643a.505.505 0 0 1-.28.925M38.193 16.23l8.112 4.698a1.83 1.83 0 0 0 1.611-.1l17.43-8.203a.83.83 0 0 1 .813-.013l-8.111-4.7a.81.81 0 0 0-.794.017l-17.449 8.203a1.83 1.83 0 0 1-1.612.097" clip-rule="evenodd"/><path fill="#1b69ff" fill-rule="evenodd" d="m39.903 16.639 6.643 3.853a1.35 1.35 0 0 0 1.17-.126l17.004-7.995-6.913-4.018c-.07-.034-.116-.061-.356.042l-17.43 8.196a1 1 0 0 1-.117.047m7.056 4.95a2.1 2.1 0 0 1-.868-.2l-8.154-4.724a.5.5 0 0 1-.185-.67.507.507 0 0 1 .657-.233 1.3 1.3 0 0 0 1.2-.1l17.43-8.195a1.32 1.32 0 0 1 1.267 0l8.112 4.704a.526.526 0 0 1 .185.691.52.52 0 0 1-.701.19c-.056-.04-.1-.065-.353.038l-17.42 8.197c-.365.18-.764.282-1.171.298zM19.095 28.13 1.647 40.14c-.37.262-.666.616-.856 1.029-.258.535-.528 1.454.043 1.894l8.112 4.695c-.602-.453-.29-1.454 0-1.994.195-.365.473-.679.811-.915l17.444-12.01a6.07 6.07 0 0 0 2.238-3.19l6.956-22.692c.24-.678 1.156-2.131 2.066-1.644L30.355.6c-.893-.48-1.825.95-2.053 1.64l-6.956 22.695a6.17 6.17 0 0 1-2.25 3.196" clip-rule="evenodd"/><path fill="#1b69ff" fill-rule="evenodd" d="M29.982 1.014a.4.4 0 0 0-.154.035 2.5 2.5 0 0 0-1.04 1.355L21.815 25.09a6.6 6.6 0 0 1-2.423 3.456h-.013L1.931 40.557a2.23 2.23 0 0 0-.695.842c-.215.461-.343 1.062-.1 1.25l6.983 4.04c.059-.411.19-.809.387-1.174.229-.432.555-.805.954-1.087l17.461-12.02a5.47 5.47 0 0 0 2.037-2.934l6.973-22.682a4.2 4.2 0 0 1 1.152-1.708l-6.97-4.048a.3.3 0 0 0-.129-.026zM8.947 48.264a.5.5 0 0 1-.258-.069l-8.112-4.7c-.683-.518-.755-1.454-.24-2.542.23-.484.576-.903 1.01-1.216l17.448-12.015a5.57 5.57 0 0 0 2.065-2.939l6.957-22.681A3.5 3.5 0 0 1 29.458.108a1.33 1.33 0 0 1 1.139.042l8.124 4.713a.51.51 0 0 1-.496.889.29.29 0 0 0-.27-.013 2.6 2.6 0 0 0-1.07 1.377l-6.957 22.673a6.57 6.57 0 0 1-2.437 3.453L10.044 45.261a2.06 2.06 0 0 0-.657.747c-.254.498-.397 1.147-.142 1.346a.513.513 0 0 1-.063.85.5.5 0 0 1-.234.061z" clip-rule="evenodd"/><path fill="#fff" fill-rule="evenodd" d="M27.19 32.83 9.76 44.84c-1.114.764-1.556 2.646-.714 2.965l13.14 5.822c.76.337 1.07 1.282.858 2.563l-3.847 22.057c-.228 1.39.91 1.695 1.886.491l15.08-19.091a3.43 3.43 0 0 1 2.763-1.61l15.08 1.619c.955.1 2.11-1.546 1.87-2.658l-3.824-17.622a5.05 5.05 0 0 1 .868-3.55L66.063 14.77c.838-1.334.387-2.658-.713-2.14l-17.43 8.203a1.538 1.538 0 0 1-2.256-.587L38.725 5.608c-.442-.924-1.886-.091-2.311 1.337l-6.97 22.695a6.15 6.15 0 0 1-2.254 3.19" clip-rule="evenodd"/><path fill="#1b69ff" fill-rule="evenodd" d="M27.46 33.26 10.043 45.268a2.25 2.25 0 0 0-.924 1.842c0 .057.026.2.099.23l13.168 5.825c.985.44 1.41 1.605 1.157 3.116l-3.85 22.052c-.073.406.03.604.1.639.116.047.472-.022.884-.549l15.08-19.091a3.877 3.877 0 0 1 3.222-1.795l15.077 1.618a1.08 1.08 0 0 0 .743-.44 2.1 2.1 0 0 0 .585-1.61l-3.82-17.62a5.47 5.47 0 0 1 .923-3.931l13.144-21.05c.455-.722.397-1.297.27-1.443-.068-.081-.252-.008-.326.031L48.13 21.286a2.04 2.04 0 0 1-2.922-.816L38.268 5.823c-.06-.1-.086-.108-.159-.1a1.86 1.86 0 0 0-1.212 1.368l-6.969 22.696a6.62 6.62 0 0 1-2.466 3.47zm-7.583 46.742c-.17 0-.34-.033-.497-.1a1.47 1.47 0 0 1-.682-1.735l3.849-22.056c.168-1.027-.03-1.778-.572-2.016L8.832 48.278a1.19 1.19 0 0 1-.713-1.044 3.26 3.26 0 0 1 1.353-2.806l17.435-12.01a.1.1 0 0 1 .043-.018 5.7 5.7 0 0 0 2.006-2.908l6.973-22.69c.122-.512.384-.979.757-1.347a2.8 2.8 0 0 1 1.353-.738 1.11 1.11 0 0 1 1.138.677l6.949 14.634c.099.207.437.876 1.58.35l17.431-8.204a1.24 1.24 0 0 1 1.526.212 2.32 2.32 0 0 1-.172 2.658L53.347 36.09a4.56 4.56 0 0 0-.8 3.18l3.82 17.617a3.12 3.12 0 0 1-.811 2.504 1.96 1.96 0 0 1-1.611.771l-15.068-1.618a3 3 0 0 0-2.325 1.416L21.459 79.057a2.14 2.14 0 0 1-1.582.945" clip-rule="evenodd"/><path fill="#fff" fill-rule="evenodd" d="M27.918 32.223a6.5 6.5 0 0 0 1.526-2.586l6.968-22.694c.215-.682 1.156-2.124 2.054-1.64L30.356.6c-.859-.462-1.769.863-2.01 1.514l-6.998 22.82a6.6 6.6 0 0 1-1.526 2.585z" clip-rule="evenodd"/><path fill="#1b69ff" fill-rule="evenodd" d="m20.604 27.396 7.215 4.182c.522-.61.91-1.323 1.138-2.094L35.93 6.802a3.93 3.93 0 0 1 1.152-1.705l-6.97-4.052a.34.34 0 0 0-.258 0 2.5 2.5 0 0 0-1.039 1.26l-6.997 22.787a7 7 0 0 1-1.212 2.304zm7.313 5.334a.45.45 0 0 1-.24-.065l-8.112-4.704a.51.51 0 0 1-.223-.59.5.5 0 0 1 .112-.195 6.1 6.1 0 0 0 1.408-2.393l7-22.808A3.4 3.4 0 0 1 29.497.094a1.32 1.32 0 0 1 1.1.065l8.124 4.709a.51.51 0 0 1-.496.888.3.3 0 0 0-.288-.008c-.493.32-.864.8-1.052 1.359L29.93 29.794a6.9 6.9 0 0 1-1.641 2.784.5.5 0 0 1-.372.152" clip-rule="evenodd"/></svg>
